48x48/apps/org.xfce.session.svg

<svg xmlns="http://www.w3.org/2000/svg" width="48" height="48" version="1.0">
 <g transform="matrix(5.0000031,0,0,5.0000031,-2535.5554,-1718.0011)">
  <path style="opacity:0.2" d="m 510.82327,348.39988 a 0.08461067,0.08858571 0 0 0 -0.0469,0.0184 l -1.43203,1.12305 a 0.08461067,0.08858571 0 0 0 -0.0336,0.0711 v 1.49765 a 0.08461067,0.08858571 0 0 0 0.13633,0.0715 l 1.43046,-1.12305 a 0.08461067,0.08858571 0 0 0 0.0332,-0.0711 v -1.49766 a 0.08461067,0.08858571 0 0 0 -0.0871,-0.0898 z m 2.17343,0 a 0.08461067,0.08858571 0 0 0 -0.0859,0.0898 v 1.49766 a 0.08461067,0.08858571 0 0 0 0.0332,0.0711 l 1.43047,1.12305 a 0.08461067,0.08858571 0 0 0 0.13633,-0.0715 v -1.49765 a 0.08461067,0.08858571 0 0 0 -0.0336,-0.0711 l -1.43203,-1.12305 a 0.08461067,0.08858571 0 0 0 -0.0469,-0.0184 0.08461067,0.08858571 0 0 0 -0.002,0 z"/>
  <path style="fill:#e6461d" transform="matrix(0.19999988,0,0,0.19999988,507.11077,343.60001)" d="M 18.5625 23 A 0.42305361 0.44292882 0 0 0 18.328125 23.091797 L 11.167969 28.707031 A 0.42305361 0.44292882 0 0 0 11 29.0625 L 11 36.550781 A 0.42305361 0.44292882 0 0 0 11.681641 36.908203 L 18.833984 31.292969 A 0.42305361 0.44292882 0 0 0 19 30.9375 L 19 23.449219 A 0.42305361 0.44292882 0 0 0 18.564453 23 L 18.5625 23 z M 29.429688 23 A 0.42305361 0.44292882 0 0 0 29 23.449219 L 29 30.9375 A 0.42305361 0.44292882 0 0 0 29.166016 31.292969 L 36.318359 36.908203 A 0.42305361 0.44292882 0 0 0 37 36.550781 L 37 29.0625 A 0.42305361 0.44292882 0 0 0 36.832031 28.707031 L 29.671875 23.091797 A 0.42305361 0.44292882 0 0 0 29.4375 23 A 0.42305361 0.44292882 0 0 0 29.429688 23 z"/>
  <path style="opacity:0.2;fill:#f4f4f7" transform="matrix(0.19999988,0,0,0.19999988,507.11077,343.60001)" d="M 18.5625 23 A 0.42305362 0.44292883 0 0 0 18.328125 23.091797 L 11.167969 28.707031 A 0.42305362 0.44292883 0 0 0 11 29.0625 L 11 30.048828 A 0.42305361 0.44292882 0 0 1 11.167969 29.707031 L 18.328125 24.091797 A 0.42305361 0.44292882 0 0 1 18.5625 24 L 18.564453 24 A 0.42305361 0.44292882 0 0 1 19 24.449219 L 19 23.449219 A 0.42305362 0.44292883 0 0 0 18.564453 23 L 18.5625 23 z M 29.429688 23 A 0.42305362 0.44292883 0 0 0 29 23.449219 L 29 24.449219 A 0.42305361 0.44292882 0 0 1 29.429688 24 L 29.427734 23.998047 A 0.42305361 0.44292882 0 0 1 29.4375 23.998047 A 0.42305361 0.44292882 0 0 1 29.671875 24.091797 L 36.832031 29.707031 A 0.42305361 0.44292882 0 0 1 37 30.0625 L 37 29.0625 A 0.42305362 0.44292883 0 0 0 36.832031 28.707031 L 29.671875 23.091797 A 0.42305362 0.44292883 0 0 0 29.4375 23 A 0.42305362 0.44292883 0 0 0 29.429688 23 z"/>
  <path style="opacity:0.2" d="m 510.91076,346.2 c -0.20793,0.73153 -0.375,1.46274 -0.4,2.2 -0.0202,0.59466 0.0966,1.1931 0.46723,1.8 h 1.86556 c 0.36967,-0.58997 0.48881,-1.18667 0.46721,-1.8 -0.0255,-0.72281 -0.17823,-1.46547 -0.4,-2.2 z"/>
  <g style="opacity:0.2" transform="matrix(0.28573782,0,0,0.39120761,467.52128,257.93402)">
   <path transform="matrix(0.67306393,0,0,0.49987606,139.21594,219.98946)" d="m 18.800781,32.75 c -0.386412,7.322975 3.212277,7.997454 5.169922,11.25 1.957645,-3.252546 5.558287,-3.927025 5.171875,-11.25 h -5.044922 -4.933594 z"/>
  </g>
  <g style="fill:#ff7c19" transform="matrix(0.28573782,0,0,0.39120761,467.52128,257.73402)">
   <path style="fill:#ff7c19" transform="matrix(0.67306393,0,0,0.49987606,139.21594,219.98946)" d="m 18.800781,32.75 c -0.386412,7.322975 3.212277,7.997454 5.169922,11.25 1.957645,-3.252546 5.558287,-3.927025 5.171875,-11.25 h -5.044922 -4.933594 z"/>
  </g>
  <path style="fill:#f4f4f7" d="m 510.91076,346 c -0.20793,0.73153 -0.375,1.46274 -0.4,2.2 -0.0202,0.59466 0.0966,1.1931 0.46723,1.8 h 1.86556 c 0.36967,-0.58997 0.48881,-1.18667 0.46721,-1.8 -0.0255,-0.72281 -0.17823,-1.46547 -0.4,-2.2 z"/>
  <path style="opacity:0.1" transform="scale(-1,1)" d="m -511.31077,347.39999 a 0.59999961,0.59999961 0 0 1 -0.59965,0.6 0.59999961,0.59999961 0 0 1 -0.60035,-0.5993 0.59999961,0.59999961 0 0 1 0.59897,-0.60069 0.59999961,0.59999961 0 0 1 0.60103,0.59861"/>
  <path style="fill:#007ede" transform="scale(-1,1)" d="m -511.31077,347.20001 a 0.59999961,0.59999961 0 0 1 -0.59965,0.6 0.59999961,0.59999961 0 0 1 -0.60035,-0.59931 0.59999961,0.59999961 0 0 1 0.59897,-0.60069 0.59999961,0.59999961 0 0 1 0.60103,0.59862"/>
  <g style="opacity:0.2" transform="matrix(0.17141074,0,0,0.24895132,485.28208,291.55777)">
   <path transform="matrix(0.8974186,0,0,0.74981144,133.81209,211.80408)" d="m 20.121094,32.75 c -0.289809,4.882001 2.410673,5.331628 3.878906,7.5 1.468233,-2.168372 4.168715,-2.617999 3.878906,-7.5 h -3.783203 -3.701172 z"/>
  </g>
  <g style="fill:#ffe113" transform="matrix(0.17141074,0,0,0.24895132,485.28208,291.35777)">
   <path style="fill:#ffe113" transform="matrix(0.8974186,0,0,0.74981144,133.81209,211.80408)" d="m 20.121094,32.75 c -0.289809,4.882001 2.410673,5.331628 3.878906,7.5 1.468233,-2.168372 4.168715,-2.617999 3.878906,-7.5 h -3.783203 -3.701172 z"/>
  </g>
  <path style="fill:#e6461d" d="m 511.90783,348.40003 a 0.19980041,0.19964408 0 0 0 -0.19704,0.20275 v 2.19704 a 0.19997534,0.19981888 0 1 0 0.39995,0 v -2.19704 a 0.19980041,0.19964408 0 0 0 -0.20291,-0.20275 z"/>
  <path style="fill:#e6461d" d="m 511.91075,344.40001 c 9.7e-4,-0.002 1.00001,1.6 1.00001,1.6 h -1.00001 -0.99999 c 0.31781,-0.58349 0.68483,-1.01477 0.99999,-1.6 z"/>
  <path style="opacity:0.2;fill:#f4f4f7" transform="matrix(0.19999988,0,0,0.19999988,507.11077,343.60001)" d="M 24 4 C 22.424199 6.9261518 20.589051 9.0825482 19 12 L 19.595703 12 C 21.038431 9.5774144 22.614731 7.5723468 24 5 C 24.004244 4.99125 27.418821 10.466972 28.375 12 L 29 12 C 29 12 24.00485 3.99 24 4 z"/>
 </g>
</svg>

<svg xmlns="http://www.w3.org/2000/svg" width="48" height="48" version="1.0"><path style="opacity:.2" d="M510.823 348.4a.085.089 0 0 0-.047.018l-1.432 1.123a.085.089 0 0 0-.033.071v1.498a.085.089 0 0 0 .136.072l1.43-1.123a.085.089 0 0 0 .034-.072v-1.497a.085.089 0 0 0-.087-.09zm2.174 0a.085.089 0 0 0-.086.09v1.497a.085.089 0 0 0 .033.071l1.43 1.123a.085.089 0 0 0 .137-.071v-1.498a.085.089 0 0 0-.034-.07l-1.432-1.124a.085.089 0 0 0-.047-.018.085.089 0 0 0-.002 0z" transform="matrix(5 0 0 5 -2535.555 -1718.001)"/><path style="fill:#e6461d" d="M18.563 23a.423.443 0 0 0-.235.092l-7.16 5.615a.423.443 0 0 0-.168.355v7.489a.423.443 0 0 0 .682.357l7.152-5.615a.423.443 0 0 0 .166-.355v-7.489a.423.443 0 0 0-.436-.449h-.002zm10.867 0a.423.443 0 0 0-.43.45v7.488a.423.443 0 0 0 .166.355l7.152 5.615a.423.443 0 0 0 .682-.357v-7.489a.423.443 0 0 0-.168-.355l-7.16-5.615a.423.443 0 0 0-.235-.092.423.443 0 0 0-.007 0z"/><path style="opacity:.2;fill:#f4f4f7" d="M18.563 23a.423.443 0 0 0-.235.092l-7.16 5.615a.423.443 0 0 0-.168.355v.987a.423.443 0 0 1 .168-.342l7.16-5.615a.423.443 0 0 1 .235-.092h.001a.423.443 0 0 1 .436.45v-1a.423.443 0 0 0-.436-.45h-.002zm10.867 0a.423.443 0 0 0-.43.45v1a.423.443 0 0 1 .43-.45l-.002-.002a.423.443 0 0 1 .01 0 .423.443 0 0 1 .234.094l7.16 5.615a.423.443 0 0 1 .168.355v-1a.423.443 0 0 0-.168-.355l-7.16-5.615a.423.443 0 0 0-.235-.092.423.443 0 0 0-.007 0z"/><path style="opacity:.2" d="M510.91 346.2c-.207.732-.374 1.463-.4 2.2-.02.595.097 1.193.468 1.8h1.866c.37-.59.488-1.187.467-1.8-.026-.723-.178-1.465-.4-2.2z" transform="matrix(5 0 0 5 -2535.555 -1718.001)"/><path transform="matrix(.9616 0 0 .97778 .949 1.978)" d="M18.8 32.75c-.386 7.323 3.213 7.997 5.17 11.25 1.958-3.253 5.559-3.927 5.173-11.25h-9.979z" style="opacity:.2"/><path style="fill:#ff7c19" transform="matrix(.9616 0 0 .97778 .949 .978)" d="M18.8 32.75c-.386 7.323 3.213 7.997 5.17 11.25 1.958-3.253 5.559-3.927 5.173-11.25h-9.979z"/><path style="fill:#f4f4f7" d="M510.91 346c-.207.732-.374 1.463-.4 2.2-.02.595.097 1.193.468 1.8h1.866c.37-.59.488-1.187.467-1.8-.026-.723-.178-1.465-.4-2.2z" transform="matrix(5 0 0 5 -2535.555 -1718.001)"/><path style="opacity:.1" transform="matrix(-5 0 0 5 -2535.555 -1718.001)" d="M-511.31 347.4a.6.6 0 0 1-.6.6.6.6 0 0 1-.6-.6.6.6 0 0 1 .598-.6.6.6 0 0 1 .601.599"/><path style="fill:#007ede" transform="matrix(-5 0 0 5 -2535.555 -1718.001)" d="M-511.31 347.2a.6.6 0 0 1-.6.6.6.6 0 0 1-.6-.6.6.6 0 0 1 .598-.6.6.6 0 0 1 .601.599"/><path transform="matrix(.76914 0 0 .93333 5.54 3.433)" d="M20.121 32.75c-.29 4.882 2.41 5.332 3.879 7.5 1.468-2.168 4.169-2.618 3.879-7.5h-7.484z" style="opacity:.2"/><path style="fill:#ffe113" transform="matrix(.76914 0 0 .93333 5.54 2.433)" d="M20.121 32.75c-.29 4.882 2.41 5.332 3.879 7.5 1.468-2.168 4.169-2.618 3.879-7.5h-7.484z"/><path style="fill:#e6461d" d="M511.908 348.4a.2.2 0 0 0-.197.203v2.197a.2.2 0 1 0 .4 0v-2.197a.2.2 0 0 0-.203-.203zM511.91 344.4c.002-.002 1 1.6 1 1.6h-2c.319-.583.686-1.015 1-1.6z" transform="matrix(5 0 0 5 -2535.555 -1718.001)"/><path style="opacity:.2;fill:#f4f4f7" d="M24 4c-1.576 2.926-3.41 5.083-5 8h.596C21.038 9.577 22.615 7.572 24 5c.004-.009 3.419 5.467 4.375 7H29s-4.995-8.01-5-8z"/></svg>
